gdscript/src/main/resources/icons/godot_editor/VisualShaderNodeCubemapUniform.svg

<svg height="14" viewBox="0 0 14 14" width="14" xmlns="http://www.w3.org/2000/svg"><path d="m2 0c-1.1045695 0-2 .8954-2 2v10c0 1.1046.8954305 2 2 2h10c1.104569 0 2-.8954 2-2v-10c0-1.1046-.895431-2-2-2zm4.9726562 2a.71438238.71438238 0 0 1 .3476563.0742188l4.2851565 2.1425781a.71438238.71438238 0 0 1 .394531.640625v4.2851562a.71438238.71438238 0 0 1 -.394531.6386719l-4.2851565 2.142578a.71438238.71438238 0 0 1 -.640625 0l-4.2851563-2.142578a.71438238.71438238 0 0 1 -.3945312-.6386719v-4.2851562a.71438238.71438238 0 0 1 .3945312-.640625l4.2851563-2.1425781a.71438238.71438238 0 0 1 .2929687-.0742188zm.0273438 1.5136719-2.6894531 1.34375 2.6894531 1.34375 2.6894531-1.34375zm-3.5722656 2.4980469v2.6894531l2.8574218 1.4277341v-2.6874998zm7.1445316 0-2.8574222 1.4296874v2.6874998l2.8574222-1.4277341z" fill="#eac968"/></svg>

<svg height="14" viewBox="0 0 14 14" width="14" xmlns="http://www.w3.org/2000/svg"><path d="M2 0a2 2 0 0 0-2 2v10a2 2 0 0 0 2 2h10a2 2 0 0 0 2-2V2a2 2 0 0 0-2-2zm4.973 2a.714.714 0 0 1 .347.074l4.286 2.143a.714.714 0 0 1 .394.64v4.286a.714.714 0 0 1-.394.638L7.32 11.924a.714.714 0 0 1-.64 0L2.395 9.78A.714.714 0 0 1 2 9.143V4.857a.714.714 0 0 1 .395-.64L6.68 2.074A.714.714 0 0 1 6.973 2zM7 3.514 4.31 4.858 7 6.2l2.69-1.343zM3.428 6.012v2.69l2.857 1.427V7.44zm7.144 0-2.857 1.43v2.687L10.572 8.7z" fill="#eac968"/></svg>
